svg/u1f327.svg

<svg viewBox="0 0 128 128" xmlns="http://www.w3.org/2000/svg">
  <path d="M107.62,46.29c0,0,1.72-32.32-23.89-38.72c-29.61-7.4-35.44,20.92-35.44,20.92 s-11.55-2.19-18.74,5.62c-6.03,6.55-5.46,12.96-5.46,12.96s-7.96-1.72-14.21,3.75S4.57,61.43,4.57,61.43l18.58,7.18 c0,0,93.83,0.47,94.3,0.16c0.47-0.31,6.25-9.37,6.25-9.37s-0.94-7.81-6.4-10.93C111.83,45.35,107.62,46.29,107.62,46.29z" fill="#E2EBEE"/>
  <path d="M14.25,73.45c4.68,0.16,35.29,0.78,53.86,0.62s46.81,0.14,50.73-1.71c3.07-1.45,4.9-3.85,5.19-7.21 c0.28-3.21-0.34-5.75-0.34-5.75s-4.37,3.16-12.65,3.28c-5.15,0.07-15.61-0.78-13.58-2.65c0.57-0.53,8.66-6.66,8.27-12.33 c-0.09-1.34-7.34,5.31-14.21,8.12c-6.87,2.81-13.39,4.98-22.47,4.4c-7.65-0.5-10.97-3.61-10.97-3.61s-3.69,4.33-14.78,5.26 c-11.09,0.94-13.48-3.23-13.48-3.23s-5.37,4.06-14.39,3.94C6.43,62.44,4.66,59.2,4.66,59.2s-0.85,5.77,1.03,9.14 C7.61,71.77,11.1,73.35,14.25,73.45z" fill="#B9CED2"/>
  <path d="M69.99,81.57c-1.71-0.6-7.81,4.23-10.56,9c-2.76,4.79-0.96,8.29,1.99,9.73 c3.32,1.62,8.1,0.62,9.46-4.1C72.22,91.53,71.83,82.22,69.99,81.57z" fill="#4FC4F8"/>
  <path d="M37.66,79.19c-1.55-0.55-6.58,4.12-8.84,6.64c-3.03,3.39-5.37,9.71,0.38,12.27 c5.79,2.57,9.55-1.64,9.84-7.46C39.32,85.22,38.94,79.65,37.66,79.19z" fill="#4FC4F8"/>
  <path d="M49.87,101.65c-1.65-0.89-8.58,5.26-10.79,8.93c-2.2,3.67-2.06,8.38,2.44,10.31s8.47-0.54,9.3-6.97 C51.4,109.36,51.46,102.51,49.87,101.65z" fill="#4FC4F8"/>
  <path d="M83.38,102.18c-1.19-0.67-9.43,5.69-11.28,10.32c-3.67,9.19,8.87,13.29,11.72,4.65 C85.48,112.11,84.85,103.01,83.38,102.18z" fill="#4FC4F8"/>
  <path d="M103.87,82.37c-1.63-1-8.48,4.64-10.76,8.88c-2.88,5.36-0.64,9.4,2.5,10.68 c3.26,1.32,7.45,0.05,8.87-4.78C106.53,90.19,105.45,83.35,103.87,82.37z" fill="#4FC4F8"/>
  <path d="M96.4,91.09c-1.08,0.13-2.42,1.67-2.63,4.3s1.45,3.96,3.13,3.29c1.58-0.63,1.84-2.88,1.84-4.3 S98.07,90.88,96.4,91.09z" fill="#AEE6FD"/>
  <path d="M63,90.26c-1.14-0.32-3.26,1.44-3.63,4.29c-0.29,2.2,0.56,3.53,2.27,3.66 c2.38,0.18,3.13-2.75,3.07-4.54C64.67,92.65,64.49,90.68,63,90.26z" fill="#AEE6FD"/>
  <path d="M42.45,109.79c-1.06-0.08-2.84,1.7-2.84,4.47s1.44,3.97,3.14,3.6c1.7-0.38,2.04-3.63,1.93-4.92 C44.57,111.65,44.02,109.91,42.45,109.79z" fill="#AEE6FD"/>
  <path d="M30.91,88.44c-1.43-0.41-3.26,1.4-3.48,3.44c-0.23,2.04,0.72,3.52,2.23,3.75 c1.51,0.23,2.8-1.59,2.95-3.71C32.77,89.8,32.24,88.81,30.91,88.44z" fill="#AEE6FD"/>
  <path d="M76.4,110.97c-1.32-0.11-3.21,1.84-3.16,4.79s1.58,3.45,2.59,3.51c1.45,0.09,2.46-1.62,2.59-4.3 C78.53,112.72,78.02,111.1,76.4,110.97z" fill="#AEE6FD"/>
</svg>

<svg viewBox="0 0 128 128" xmlns="http://www.w3.org/2000/svg">
  <defs/>
  <path d="M107.62,46.29 C107.62,46.29 109.34,13.97 83.73,7.57 C54.12,0.17 48.29,28.49 48.29,28.49 C48.29,28.49 36.74,26.3 29.55,34.11 C23.52,40.66 24.09,47.07 24.09,47.07 C24.09,47.07 16.13,45.35 9.88,50.82 C3.63,56.29 4.57,61.43 4.57,61.43 L23.15,68.61 C23.15,68.61 116.98,69.08 117.45,68.77 C117.92,68.46 123.7,59.4 123.7,59.4 C123.7,59.4 122.76,51.59 117.3,48.47 C111.83,45.35 107.62,46.29 107.62,46.29 Z" fill="#E2EBEE"/>
  <path d="M14.25,73.45 C18.93,73.61 49.54,74.23 68.11,74.07 C86.68,73.91 114.92,74.21 118.84,72.36 C121.91,70.91 123.74,68.51 124.03,65.15 C124.31,61.94 123.69,59.4 123.69,59.4 C123.69,59.4 119.32,62.56 111.04,62.68 C105.89,62.75 95.43,61.9 97.46,60.03 C98.03,59.5 106.12,53.37 105.73,47.7 C105.64,46.36 98.39,53.01 91.52,55.82 C84.65,58.63 78.13,60.8 69.05,60.22 C61.4,59.72 58.08,56.61 58.08,56.61 C58.08,56.61 54.39,60.94 43.3,61.87 C32.21,62.81 29.82,58.64 29.82,58.64 C29.82,58.64 24.45,62.7 15.43,62.58 C6.43,62.44 4.66,59.2 4.66,59.2 C4.66,59.2 3.81,64.97 5.69,68.34 C7.61,71.77 11.1,73.35 14.25,73.45 Z" fill="#B9CED2"/>
  <path d="M69.99,81.57 C68.28,80.97 62.18,85.8 59.43,90.57 C56.67,95.36 58.47,98.86 61.42,100.3 C64.74,101.92 69.52,100.92 70.88,96.2 C72.22,91.53 71.83,82.22 69.99,81.57 Z" fill="#4FC4F8"/>
  <path d="M37.66,79.19 C36.11,78.64 31.08,83.31 28.82,85.83 C25.79,89.22 23.45,95.54 29.2,98.1 C34.99,100.67 38.75,96.46 39.04,90.64 C39.32,85.22 38.94,79.65 37.66,79.19 Z" fill="#4FC4F8"/>
  <path d="M49.87,101.65 C48.22,100.76 41.29,106.91 39.08,110.58 C36.88,114.25 37.02,118.96 41.52,120.89 C46.02,122.82 49.99,120.35 50.82,113.92 C51.4,109.36 51.46,102.51 49.87,101.65 Z" fill="#4FC4F8"/>
  <path d="M83.38,102.18 C82.19,101.51 73.95,107.87 72.1,112.5 C68.43,121.69 80.97,125.79 83.82,117.15 C85.48,112.11 84.85,103.01 83.38,102.18 Z" fill="#4FC4F8"/>
  <path d="M103.87,82.37 C102.24,81.37 95.39,87.01 93.11,91.25 C90.23,96.61 92.47,100.65 95.61,101.93 C98.87,103.25 103.06,101.98 104.48,97.15 C106.53,90.19 105.45,83.35 103.87,82.37 Z" fill="#4FC4F8"/>
  <path d="M96.4,91.09 C95.32,91.22 93.98,92.76 93.77,95.39 C93.56,98.02 95.22,99.35 96.9,98.68 C98.48,98.05 98.74,95.8 98.74,94.38 C98.74,92.96 98.07,90.88 96.4,91.09 Z" fill="#AEE6FD"/>
  <path d="M63,90.26 C61.86,89.94 59.74,91.7 59.37,94.55 C59.08,96.75 59.93,98.08 61.64,98.21 C64.02,98.39 64.77,95.46 64.71,93.67 C64.67,92.65 64.49,90.68 63,90.26 Z" fill="#AEE6FD"/>
  <path d="M42.45,109.79 C41.39,109.71 39.61,111.49 39.61,114.26 C39.61,117.03 41.05,118.23 42.75,117.86 C44.45,117.48 44.79,114.23 44.68,112.94 C44.57,111.65 44.02,109.91 42.45,109.79 Z" fill="#AEE6FD"/>
  <path d="M30.91,88.44 C29.48,88.03 27.65,89.84 27.43,91.88 C27.2,93.92 28.15,95.4 29.66,95.63 C31.17,95.86 32.46,94.04 32.61,91.92 C32.77,89.8 32.24,88.81 30.91,88.44 Z" fill="#AEE6FD"/>
  <path d="M76.4,110.97 C75.08,110.86 73.19,112.81 73.24,115.76 C73.29,118.71 74.82,119.21 75.83,119.27 C77.28,119.36 78.29,117.65 78.42,114.97 C78.53,112.72 78.02,111.1 76.4,110.97 Z" fill="#AEE6FD"/>
</svg>
